X:997
T:Lucy Farr's
R:Barndance
P:(Barndance)
D:Martin Hayes, Under the Moon
S:Martin Hayes, Under the Moon
Z:Transcription, chords:Mike Long
M:C|
L:1/8
K:A
P:APB Martin Hayes
"A"A4 A4|"A"A>Bc>A "D"F2"A"E2|"A"c4c4|"A"c>de>c "E"B4|\
"A"c>de>c A4|"A"A>Bc>A "D"F2"A"E2|
"A"E>FA>B c>ee>c|"E"B2A2 "A"A4:|\
|:"A"c>de>c A4|"A"A>Bc>A "D"F2"A"E2|"A"E>FA>B c>ee>c|
"A"c2B2 "E"B4|\
"A"c>de>c A4|"A"A>Bc>A "D"F2"A"E2|"A"E>FA>B c>ee>c|"E"B2A2 "A"A4:|
